{"compressionlevel":-1,"type":"map","version":"1.10","tiledversion":"1.10.2","orientation":"orthogonal","renderorder":"right-down","infinite":false,"width":30,"height":30,"tilewidth":32,"tileheight":32,"nextlayerid":2,"nextobjectid":1,"layers":[{"id":1,"name":"ground","type":"tilelayer","visible":true,"opacity":1,"x":0,"y":0,"width":30,"height":30,"data":[1,2,2,2,3,4,3,2,2,4,2,3,2,2,5,6,2,2,3,2,2,2,2,2,2,4,7,2,2,3,1,2,7,2,2,2,3,2,2,2,2,2,8,2,9,10,7,11,2,2,2,3,2,1,3,2,2,4,1,2,2,2,2,2,2,2,2,12,13,1,2,3,14,15,16,17,18,19,2,2,2,20,21,2,4,2,7,2,2,2,1,2,2,4,22,23,24,16,25,26,27,24,28,29,30,30,29,31,32,27,24,16,25,33,27,34,7,2,2,3,2,1,2,2,35,36,37,38,37,38,38,38,38,39,40,30,30,29,41,42,43,44,45,46,47,48,3,2,1,2,2,49,3,1,50,2,2,2,2,2,1,1,2,2,51,30,52,53,54,2,55,56,57,58,57,59,4,2,2,2,2,49,2,4,60,3,2,49,4,4,2,2,61,62,16,30,63,64,65,2,66,67,68,69,56,70,1,2,2,7,3,3,2,49,60,1,2,2,2,2,49,2,71,72,40,30,73,74,2,2,2,75,76,77,78,79,4,2,2,49,3,2,2,2,80,2,2,2,2,2,2,2,7,2,81,30,73,82,49,83,84,2,2,4,85,86,87,88,2,3,2,49,2,2,89,4,2,49,49,2,2,90,91,62,92,29,63,93,94,95,96,2,4,1,2,97,98,2,1,2,49,49,2,2,99,100,101,102,2,2,1,103,104,105,106,107,108,109,110,56,111,3,2,2,2,50,2,3,2,2,3,2,49,49,112,56,113,114,2,2,3,2,115,57,116,117,57,57,57,57,118,2,90,119,2,120,7,2,2,2,2,1,121,122,123,113,57,124,125,126,127,128,129,130,131,132,133,134,135,136,137,1,138,139,140,141,142,143,2,2,2,2,144,145,146,57,113,147,7,148,149,3,115,150,151,152,153,147,3,154,155,2,156,157,145,29,158,159,4,2,33,24,28,30,160,161,162,163,164,16,31,165,166,167,168,168,169,170,171,172,31,173,16,29,30,30,29,31,33,24,174,39,175,30,107,44,176,177,178,40,179,180,181,56,110,57,182,134,183,184,179,185,39,40,30,30,29,186,36,187,2,2,188,189,190,182,57,147,2,191,192,2,115,57,113,113,57,147,2,193,54,2,2,188,194,29,52,54,2,2,2,2,71,195,196,197,197,198,199,200,201,202,203,204,205,134,206,207,208,209,210,2,2,211,72,212,213,214,2,2,4,3,2,2,215,113,57,57,147,2,216,2,217,2,218,219,2,220,182,57,111,2,2,2,2,221,7,49,4,2,2,2,2,49,222,223,76,76,224,225,226,94,227,140,16,228,229,230,57,113,111,2,2,2,2,60,49,2,2,2,2,4,2,2,231,2,2,3,2,2,75,76,232,233,234,29,158,235,182,57,114,2,2,1,1,236,3,2,1,2,2,2,7,2,237,238,91,91,91,239,7,2,1,2,5,179,36,240,241,242,243,244,27,27,24,245,7,2,4,3,2,2,2,2,246,73,152,151,151,247,7,2,2,2,9,248,2,7,2,2,2,249,44,176,45,48,1,2,2,7,2,2,2,2,250,63,151,151,151,251,3,2,252,253,16,228,142,254,143,2,255,256,110,110,57,257,4,2,2,2,2,2,2,2,246,258,259,259,259,159,2,4,144,260,30,30,158,259,159,2,261,235,57,110,182,262,2,2,49,2,49,3,7,2,263,38,264,38,38,265,266,267,268,30,30,30,30,179,269,270,271,272,273,274,275,276,2,2,7,2,2,2,4,3,2,2,2,2,3,2,2,2,188,194,29,29,52,277,7,2,7,3,2,2,2,1,2,2,2,2,3,3,2,2,2,1,2,2,2,2,2,2,278,279,175,280,281,282,2,3,7,49,2,2,1,2,2,2,1,2,2,2,2,2,2,2,2,2,2,2,2,2,283,4,5,6,2,284,1,2,2,2,2,2,4,3,1,2,2,2,2,4,4,2,2,2,49,2,1,49,2,2,2,2,285,286,2,2,2,1,2,2,2,2,4,2,2,2,49,2]}],"tilesets":[{"firstgid":1,"name":"tilemap","image":"tileset.png","imagewidth":544,"imageheight":544,"tilewidth":32,"tileheight":32,"tilecount":286,"columns":17,"margin":0,"spacing":0}]}